icons/icn_perfil.svg

<svg width="24" xmlns="http://www.w3.org/2000/svg" height="24" id="screenshot-7d3c7f0b-2e55-809a-8006-a15c80855746" viewBox="0 0 24 24" xmlns:xlink="http://www.w3.org/1999/xlink" fill="none" version="1.1"><g id="shape-7d3c7f0b-2e55-809a-8006-a15c80855746"><g class="frame-container-wrapper"><g class="frame-container-blur"><g class="frame-container-shadows"><g fill="none"><g class="fills" id="fills-7d3c7f0b-2e55-809a-8006-a15c80855746"><rect rx="0" ry="0" x="0" y="0" width="24" height="24.000000000000455" transform="matrix(1, 0, 0, 1, 0, 0)" class="frame-background"/></g><g class="frame-children"><g id="shape-a692a29b-b9de-80cb-8006-a15bf9ee8eed" rx="0" ry="0"><g id="shape-a692a29b-b9de-80cb-8006-a15ba35dfaf6" style="opacity: 1;"><g class="fills" id="fills-a692a29b-b9de-80cb-8006-a15ba35dfaf6"><path d="M3.498095750808716,3.135009765625C3.022021532058716,3.1368408203125,2.636279344558716,3.5220947265625,2.634570360183716,3.9981689453125L2.634570360183716,20.002197265625C2.636279344558716,20.477783203125,3.022021532058716,20.863525390625,3.498095750808716,20.8653564453125L20.497852325439453,20.8653564453125C20.728565216064453,20.8663330078125,20.949024200439453,20.77587890625,21.112354278564453,20.6138916015625C21.275684356689453,20.4520263671875,21.367969512939453,20.23193359375,21.368946075439453,20.002197265625C21.370655059814453,19.7705078125,21.279346466064453,19.5482177734375,21.115039825439453,19.3848876953125C20.951709747314453,19.2210693359375,20.729297637939453,19.1297607421875,20.497852325439453,19.130615234375L19.862842559814453,19.130615234375L19.862842559814453,17.5001220703125C19.861133575439453,17.0240478515625,19.476367950439453,16.6387939453125,19.000293731689453,16.636962890625C18.523975372314453,16.6387939453125,18.138233184814453,17.0240478515625,18.136524200439453,17.5001220703125L18.136524200439453,19.0567626953125C17.203662872314453,18.88330078125,16.667530059814453,18.401611328125,16.179248809814453,17.654296875C15.558398246765137,16.7020263671875,15.151415824890137,15.2685546875,14.711230278015137,13.758056640625C14.270312309265137,12.2470703125,13.791308403015137,10.6492919921875,12.798388481140137,9.349609375C11.806445121765137,8.0499267578125,10.216601371765137,7.1346435546875,8.000292778015137,7.1346435546875C6.413134574890137,7.1346435546875,5.208056449890137,8.01123046875,4.369189262390137,8.9510498046875L4.369189262390137,3.9981689453125C4.368456840515137,3.7679443359375,4.276171684265137,3.5479736328125,4.112841606140137,3.385986328125C3.949511766433716,3.2239990234375,3.728076219558716,3.1336669921875,3.498095750808716,3.135009765625ZM8.000292778015137,8.869384765625C9.783007621765137,8.869384765625,10.691943168640137,9.4478759765625,11.418017387390137,10.3983154296875C12.144335746765137,11.3487548828125,12.608447074890137,12.7550048828125,13.043017387390137,14.2442626953125C13.477587699890137,15.7335205078125,13.877245903015137,17.3017578125,14.724169731140137,18.599609375C14.845019340515137,18.78369140625,14.978808403015137,18.9613037109375,15.122851371765137,19.130615234375L11.869189262390137,19.130615234375L11.869189262390137,17.5001220703125C11.868456840515137,17.2698974609375,11.776171684265137,17.0498046875,11.612841606140137,16.887939453125C11.449511528015137,16.7259521484375,11.228075981140137,16.635498046875,10.998095512390137,16.636962890625C10.522021293640137,16.6387939453125,10.136279106140137,17.0240478515625,10.134570121765137,17.5001220703125L10.134570121765137,19.130615234375L4.369189262390137,19.130615234375L4.369189262390137,17.3673095703125L5.999804496765137,17.3673095703125C6.475878715515137,17.365478515625,6.861620903015137,16.979736328125,6.863329887390137,16.5040283203125C6.864306449890137,16.2738037109375,6.773974418640137,16.0528564453125,6.612353324890137,15.8895263671875C6.449999809265137,15.7261962890625,6.230517387390137,15.6339111328125,5.999804496765137,15.633056640625L4.369189262390137,15.633056640625L4.369189262390137,13.3653564453125L5.999804496765137,13.3653564453125C6.475878715515137,13.363525390625,6.861620903015137,12.977783203125,6.863329887390137,12.502197265625C6.864306449890137,12.27197265625,6.773974418640137,12.0509033203125,6.612353324890137,11.8875732421875C6.449999809265137,11.7242431640625,6.230517387390137,11.631591796875,5.999804496765137,11.630615234375L4.624804496765137,11.630615234375C4.791796684265137,11.312744140625,5.022509574890137,10.9205322265625,5.320605278015137,10.5233154296875C5.986865043640137,9.63427734375,6.885546684265137,8.869384765625,8.000292778015137,8.869384765625Z" style="display: inline; stroke-linecap: round; stroke-linejoin: round; fill: rgb(0, 0, 0); fill-opacity: 1;"/></g></g></g></g></g></g></g></g></g></svg>

<svg fill="none" viewBox="0 0 24 24"><g class="frame-container-wrapper"><g class="frame-container-blur"><g class="frame-container-shadows"><g class="fills"><rect width="24" height="24" class="frame-background" rx="0" ry="0"/></g><g class="frame-children"><path fill="#000" d="M3.4981 3.135c-.476.0018-.8618.387-.8635.8632v16.004c.0017.4756.3874.8613.8635.8632h16.9998a.8664.8664 0 0 0 .6145-.2515.8665.8665 0 0 0 .2565-.6117.8609.8609 0 0 0-.2539-.6173.8669.8669 0 0 0-.6171-.2543h-.635v-1.6305a.8657.8657 0 0 0-.8626-.8631c-.4763.0018-.862.387-.8638.8631v1.5567c-.9328-.1735-1.469-.6552-1.9573-1.4025-.6208-.9523-1.0278-2.3857-1.468-3.8962-.4409-1.511-.9199-3.1088-1.9128-4.4085-.992-1.2997-2.5818-2.215-4.7981-2.215-1.5872 0-2.7922.8766-3.6311 1.8164V3.9982a.8657.8657 0 0 0-.8711-.8632Zm4.5022 5.7344c1.7827 0 2.6916.5785 3.4177 1.529.7263.9504 1.1904 2.3566 1.625 3.8459.4346 1.4892.8342 3.0575 1.6812 4.3553a5.366 5.366 0 0 0 .3987.531h-3.2537v-1.6305a.8657.8657 0 0 0-.871-.8632c-.4762.0019-.862.3871-.8636.8632v1.6305H4.3692v-1.7633h1.6306c.476-.0018.8618-.3876.8635-.8633a.8683.8683 0 0 0-.251-.6145.867.867 0 0 0-.6125-.2564H4.3692v-2.2677h1.6306c.476-.0019.8618-.3876.8635-.8632a.8686.8686 0 0 0-.251-.6146.868.868 0 0 0-.6125-.257h-1.375c.167-.3179.3977-.71.6958-1.1073.6663-.889 1.565-1.654 2.6797-1.654Z" class="fills"/></g></g></g></g></svg>
